X:1
T:Glad Tidings
T:Glad Tidings
T:Robert Lowry
T:Frances Jane (Fanny) Crosby, 1873
T:Public Domain Courtesy of the Cyber Hymnal™
T:Public Domain Courtesy of the Cyber Hymnal™
C:Robert Lowry
Z:Public Domain
Z:Courtesy of the Cyber Hymnal™
%%score ( 1 2 ) ( 3 4 )
L:1/8
Q:1/4=160
M:3/4
K:C
V:1 treble 
V:2 treble 
V:3 bass 
V:4 bass 
V:1
 [EG]2 | [EG]2 [CE]2 [EG]2 | [EG]2 [CE]2 [EG]2 | [Ge]2 [Fd]2 [Gc]2 | [EG]4 [EG]2 | %5
w: 1.~Glad|tid- ings! glad|tid- ings! O|won- der- ful|love! A|
w: 2.~He|saith to the|wear- y, O|come un- to|Me; The|
w: 3.~How|hap- py are|they who be-|lieve in the|Lord, And|
 [FA]2 [CF]2 [FA]2 | [FA]2 [CF]2 [FA]2 | [Fd]2 [Fc]2 [FA]2 | [EG]4 [EG]2 | [DB]2 [GB]2 [FB]2 | %10
w: mes- sage has|come from our|Fa- ther a-|bove; ’Tis|Je- sus who|
w: poor and the|low- ly His|glor- y may|see; He|bless- eth the|
w: love the sweet|coun- sel they|find in His|Word! Be|read- y to|
 [Ec]2 [Ec]2 [Ec]2 | [Fd]2 [Fd]2 [Ec]2 | [GB]4 G2 | [Ge]2 [Gd]2 [Gc]2 | [FA]2 [Fd]2 [Fc]2 | %15
w: brought it to|young and to|old, A|mes- sage of|mer- cy more|
w: meek with His|soul- cheer- ing|voice; He|com- forts the|mourn- ers and|
w: hear, and be|swift to o-|bey, And|fol- low His|steps in the|
 [DB]2 [FA]2 [FB]2 | [Ec]4 ||"^Refrain" [EG]2 | [Ge]6 | [Gd]4 G2 | d6 | [Ec]4 [Gc]2 | %22
w: pre- cious than|gold.||||||
w: bids them re-|joice.||||||
w: bright shin- ing|way.||||||
 [Ac]2 [FA]2 [Ac]2 | [Ac]2 [FA]2 [Ac]2 | [Ac]2 [GB]2 [FA]2 | [EG]4 [EG]2 | [Fd]6 | [GB]4 [FG]2 | %28
w: ||||||
w: ||||||
w: ||||||
 [Ge]6 | [Ec]4 [Ec]2 | [Fc]2 [Fc]2 [Fc]2 | [FA]2 [FA]2 [FA]2 | [EG]2 [Ec]2 [DB]2 | [Ec]4 |] %34
w: ||||||
w: ||||||
w: ||||||
V:2
 x2 | x6 | x6 | x6 | x6 | x6 | x6 | x6 | x6 | x6 | x6 | x6 | x4 G2 | x6 | x6 | x6 | x4 || x2 | x6 | %19
 x4 G2 | (G4 F2) | x6 | x6 | x6 | x6 | x6 | x6 | x6 | x6 | x6 | x6 | x6 | x6 | x4 |] %34
V:3
 [C,C]2 | [C,C]2 [C,G,]2 [C,C]2 | [C,C]2 [C,G,]2 [C,C]2 | [C,C]2 [D,B,]2 [E,C]2 | [C,C]4 [C,C]2 | %5
w: ~|~ ~ ~|~ ~ ~|~ ~ ~|~ ~|
 [F,C]2 [F,A,]2 [F,C]2 | [F,C]2 [F,A,]2 [F,C]2 | [F,A,]2 [F,A,]2 [F,C]2 | [C,C]4 [C,C]2 | %9
w: ~ ~ ~|~ ~ ~|~ ~ ~|~ ~|
 G,2 [G,D]2 [G,D]2 | [G,C]2 [G,C]2 [G,C]2 | [G,B,]2 [G,B,]2 [G,C]2 | [G,D]4 [G,B,]2 | %13
w: ~ ~ ~|~ ~ ~|~ ~ ~|~ ~|
 [C,C]2 [D,B,]2 [E,C]2 | [F,C]2 [F,A,]2 [F,A,]2 | G,2 [G,D]2 [G,D]2 | [C,C]4 || [C,C]2 | %18
w: ~ ~ ~|~ ~ ~|~ ~ ~|~|Glad|
 ([C,C]2 [D,C]2 [E,C]2) | ([G,B,]2 [G,B,]2) [G,B,]2 | ([G,B,]2 [G,B,]2 [G,B,]2) | %21
w: tid- * *|ings, * glad|tid- * *|
 ([C,C]2 [C,C]2) [E,C]2 | [F,C]2 [F,C]2 [F,C]2 | [F,C]2 [F,C]2 [F,C]2 | [F,C]2 [F,C]2 [F,C]2 | %25
w: ings, * O|won- der- ful,|won- der- ful,|won- der- ful|
 [C,C]4 [C,C]2 | ([G,B,]2 [G,B,]2 [G,B,]2) | ([F,D]2 [F,D]2) [G,B,]2 | ([C,C]2 [D,C]2 [E,C]2) | %29
w: love! Glad|tid- * *|ings, * glad|tid- * *|
 ([A,C]2 [A,C]2) [A,C]2 | [F,A,]2 [F,A,]2 [F,A,]2 | [D,C]2 [D,C]2 [D,C]2 | [G,C]2 G,2 [G,,G,]2 | %33
w: ings! * We|hail the glad|tid- ings of|won- der- ful|
 [C,G,]4 |] %34
w: love.|
V:4
 x2 | x6 | x6 | x6 | x6 | x6 | x6 | x6 | x6 | G,2 x4 | x6 | x6 | x6 | x6 | x6 | G,2 x4 | x4 || x2 | %18
 x6 | x6 | x6 | x6 | x6 | x6 | x6 | x6 | x6 | x6 | x6 | x6 | x6 | x6 | x2 G,2 x2 | x4 |] %34

